X:1
T:The Avondale Disaster (2)
M:6/8
L:1/8
K:D
 A2- G| F2 E D2 G| G3 B,2 D|E-F G D2 C| D3 z2 D| D2 FA-B| c| d2 d G2 A/2A/2|\
 B2 d c2 B| A3 z2 d/2d/2| e2 ee-f g| a3 d2 e| f2 a g2 f| e3 e2- d|\
 c2 B A2 c| d2 d G2 A|B-c d A2 ^G| A3||
